X: 1
T: the Sweets of May
R: 6/8
Z: 2020 John Chambers <jc:trillian.mit.edu>
S: https://www.facebook.com/groups/Fiddletuneoftheday/
S: https://www.youtube.com/watch?v=vwP-KCmEw8M
M: 6/8
L: 1/8
K: G
d2c |:\
"G"BAG "D"AFD | "G"GAG Gdc | BAG GAB | "Am"c3 "D"d2c |\
"G"BAG "D"AFD | "G"GAG Gdc | BAG "D"AFD |1 "G"G3 Gdc :|2 G3 G3 ||
|:\
"Am"ABA A2G | "Em"E2F G3 | "Am"ABA c2d | "Em"e2d c2B |\
"Am"ABA A2G | "Em"E2F G3 | "Am"ABA "G"BAG |1 "Am"A3 A3 :|2 "A"A3 A ||
|: Bc |\
"D"d3 d3 | D3 D3 | "C"c3 c3 | "D"D3 DEF |\
"G"G2F G2A | "Em"B2A B2c | "D"d2D DEF |1 "G"G3 G :|2 "G"G3 G3 |]
